flaticon/web-design/competition.svg

<svg xmlns="http://www.w3.org/2000/svg" width="32" height="32" viewBox="0 0 24 24">
    <path d="M17.027344 12.707031C16.863281 12.578125 16.628906 12.605469 16.5 12.769531 16.363281 12.9375 16.214844 13.101562 16.0625 13.257812 15.742188 13.574219 15.390625 13.855469 15.011719 14.089844 14.832031 14.195312 14.777344 14.429688 14.886719 14.605469 14.957031 14.722656 15.082031 14.785156 15.207031 14.785156 15.273438 14.785156 15.34375 14.765625 15.402344 14.730469 15.832031 14.464844 16.234375 14.148438 16.59375 13.789062 16.769531 13.613281 16.933594 13.429688 17.085938 13.234375 17.214844 13.074219 17.1875 12.835938 17.027344 12.707031zM18.113281 8.820312C17.90625 8.820312 17.738281 8.988281 17.738281 9.195312 17.738281 9.980469 17.582031 10.742188 17.28125 11.453125 17.199219 11.644531 17.289062 11.863281 17.480469 11.945312 17.527344 11.964844 17.578125 11.976562 17.628906 11.976562 17.773438 11.976562 17.914062 11.890625 17.972656 11.746094 18.316406 10.941406 18.488281 10.082031 18.488281 9.195312 18.488281 8.988281 18.320312 8.820312 18.113281 8.820312zM18.113281 8.820312"/>
    <path d="M 20.617188 8.21875 C 20.40625 8.21875 20.199219 8.238281 19.992188 8.277344 L 19.992188 7.566406 L 20.820312 7.566406 C 21.027344 7.566406 21.195312 7.398438 21.195312 7.191406 L 21.195312 4.984375 C 21.195312 4.777344 21.027344 4.609375 20.820312 4.609375 L 3.179688 4.609375 C 2.972656 4.609375 2.804688 4.777344 2.804688 4.984375 L 2.804688 7.191406 C 2.804688 7.398438 2.972656 7.566406 3.179688 7.566406 L 4.007812 7.566406 L 4.007812 8.277344 C 3.800781 8.238281 3.59375 8.21875 3.382812 8.21875 C 1.515625 8.21875 0 9.734375 0 11.597656 C 0 13.464844 1.515625 14.980469 3.382812 14.980469 C 4.238281 14.980469 5.050781 14.660156 5.671875 14.085938 C 6.894531 15.671875 8.664062 16.726562 10.621094 17.066406 L 10.621094 20.359375 C 8.824219 20.671875 7.183594 21.59375 5.96875 22.976562 C 5.871094 23.085938 5.847656 23.242188 5.910156 23.378906 C 5.972656 23.511719 6.105469 23.597656 6.253906 23.597656 L 17.746094 23.597656 C 17.894531 23.597656 18.027344 23.511719 18.089844 23.378906 C 18.152344 23.242188 18.128906 23.085938 18.03125 22.976562 C 16.816406 21.59375 15.175781 20.671875 13.378906 20.359375 L 13.378906 17.066406 C 15.335938 16.726562 17.105469 15.671875 18.328125 14.085938 C 18.949219 14.660156 19.761719 14.980469 20.617188 14.980469 C 22.484375 14.980469 24 13.464844 24 11.597656 C 24 9.734375 22.484375 8.21875 20.617188 8.21875 Z M 3.558594 6.8125 L 3.558594 5.359375 L 20.441406 5.359375 L 20.441406 6.8125 Z M 20.617188 10.570312 C 21.183594 10.570312 21.644531 11.03125 21.644531 11.597656 C 21.644531 12.164062 21.183594 12.625 20.617188 12.625 C 20.078125 12.625 19.644531 12.21875 19.597656 11.691406 C 19.671875 11.464844 19.734375 11.230469 19.789062 10.992188 C 19.980469 10.730469 20.289062 10.570312 20.617188 10.570312 Z M 4.402344 11.691406 C 4.359375 12.21875 3.921875 12.625 3.382812 12.625 C 2.816406 12.625 2.355469 12.164062 2.355469 11.597656 C 2.355469 11.03125 2.816406 10.570312 3.382812 10.570312 C 3.710938 10.570312 4.019531 10.730469 4.210938 10.992188 C 4.265625 11.230469 4.328125 11.464844 4.402344 11.691406 Z M 3.382812 14.230469 C 1.929688 14.230469 0.75 13.050781 0.75 11.597656 C 0.75 10.148438 1.929688 8.96875 3.382812 8.96875 C 3.59375 8.96875 3.804688 8.996094 4.007812 9.042969 L 4.007812 9.195312 C 4.007812 9.445312 4.019531 9.699219 4.042969 9.949219 C 3.835938 9.863281 3.613281 9.820312 3.382812 9.820312 C 2.402344 9.820312 1.601562 10.617188 1.601562 11.597656 C 1.601562 12.578125 2.402344 13.378906 3.382812 13.378906 C 3.960938 13.378906 4.476562 13.105469 4.800781 12.675781 C 4.929688 12.945312 5.074219 13.210938 5.238281 13.464844 C 4.746094 13.953125 4.082031 14.230469 3.382812 14.230469 Z M 16.847656 22.847656 L 7.152344 22.847656 C 8.238281 21.875 9.59375 21.246094 11.046875 21.054688 C 11.234375 21.03125 11.375 20.871094 11.375 20.683594 L 11.375 17.1875 L 12.625 17.1875 L 12.625 20.683594 C 12.625 20.871094 12.765625 21.03125 12.953125 21.054688 C 14.40625 21.246094 15.761719 21.875 16.847656 22.847656 Z M 17.980469 13.289062 C 16.632812 15.257812 14.398438 16.433594 12 16.433594 C 9.601562 16.433594 7.367188 15.257812 6.019531 13.289062 C 5.644531 12.742188 5.351562 12.148438 5.140625 11.527344 C 5.058594 11.277344 4.984375 11.019531 4.929688 10.757812 C 4.816406 10.246094 4.761719 9.71875 4.761719 9.195312 L 4.761719 7.566406 L 19.238281 7.566406 L 19.238281 9.195312 C 19.238281 9.71875 19.183594 10.246094 19.070312 10.757812 C 19.015625 11.019531 18.941406 11.277344 18.859375 11.527344 C 18.648438 12.148438 18.355469 12.742188 17.980469 13.289062 Z M 20.617188 14.230469 C 19.917969 14.230469 19.253906 13.953125 18.761719 13.464844 C 18.925781 13.210938 19.070312 12.945312 19.199219 12.675781 C 19.523438 13.105469 20.039062 13.378906 20.617188 13.378906 C 21.597656 13.378906 22.398438 12.578125 22.398438 11.597656 C 22.398438 10.617188 21.597656 9.820312 20.617188 9.820312 C 20.386719 9.820312 20.164062 9.863281 19.957031 9.949219 C 19.980469 9.699219 19.992188 9.445312 19.992188 9.195312 L 19.992188 9.042969 C 20.195312 8.996094 20.40625 8.96875 20.617188 8.96875 C 22.066406 8.96875 23.25 10.148438 23.25 11.597656 C 23.25 13.050781 22.070312 14.230469 20.617188 14.230469 Z M 20.617188 14.230469"/>
    <path d="M15.5625 10.875C15.507812 10.722656 15.367188 10.621094 15.207031 10.621094L13.066406 10.621094 12.351562 8.664062C12.300781 8.515625 12.15625 8.417969 12 8.417969 11.84375 8.417969 11.699219 8.515625 11.648438 8.664062L10.933594 10.621094 8.792969 10.621094C8.632812 10.621094 8.492188 10.722656 8.4375 10.875 8.386719 11.023438 8.433594 11.191406 8.558594 11.292969L10.371094 12.730469 9.832031 14.695312C9.789062 14.851562 9.851562 15.019531 9.988281 15.105469 10.121094 15.195312 10.300781 15.191406 10.425781 15.089844L12 13.867188 13.574219 15.089844C13.640625 15.144531 13.722656 15.171875 13.804688 15.171875 13.875 15.171875 13.949219 15.148438 14.011719 15.105469 14.148438 15.019531 14.207031 14.851562 14.167969 14.695312L13.628906 12.730469 15.441406 11.292969C15.566406 11.191406 15.613281 11.023438 15.5625 10.875zM12.96875 12.296875C12.851562 12.390625 12.800781 12.542969 12.839844 12.6875L13.144531 13.804688 12.230469 13.09375C12.164062 13.042969 12.082031 13.015625 12 13.015625 11.917969 13.015625 11.835938 13.042969 11.769531 13.09375L10.855469 13.804688 11.160156 12.6875C11.199219 12.542969 11.148438 12.390625 11.03125 12.296875L9.871094 11.375 11.199219 11.375C11.355469 11.375 11.496094 11.273438 11.550781 11.125L12 9.894531 12.449219 11.125C12.503906 11.273438 12.644531 11.375 12.800781 11.375L14.128906 11.375zM13.003906 1.402344L12.375 1.402344 12.375.777344C12.375.570312 12.207031.402344 12 .402344 11.792969.402344 11.625.570312 11.625.777344L11.625 1.402344 10.996094 1.402344C10.789062 1.402344 10.621094 1.570312 10.621094 1.777344 10.621094 1.984375 10.789062 2.15625 10.996094 2.15625L11.625 2.15625 11.625 2.78125C11.625 2.988281 11.792969 3.15625 12 3.15625 12.207031 3.15625 12.375 2.988281 12.375 2.78125L12.375 2.15625 13.003906 2.15625C13.210938 2.15625 13.378906 1.984375 13.378906 1.777344 13.378906 1.570312 13.210938 1.402344 13.003906 1.402344zM18.613281 1.402344L17.988281 1.402344 17.988281.777344C17.988281.570312 17.820312.402344 17.613281.402344 17.402344.402344 17.234375.570312 17.234375.777344L17.234375 1.402344 16.609375 1.402344C16.402344 1.402344 16.234375 1.570312 16.234375 1.777344 16.234375 1.984375 16.402344 2.15625 16.609375 2.15625L17.234375 2.15625 17.234375 2.78125C17.234375 2.988281 17.402344 3.15625 17.613281 3.15625 17.820312 3.15625 17.988281 2.988281 17.988281 2.78125L17.988281 2.15625 18.613281 2.15625C18.820312 2.15625 18.988281 1.984375 18.988281 1.777344 18.988281 1.570312 18.820312 1.402344 18.613281 1.402344zM7.792969 1.402344L7.164062 1.402344 7.164062.777344C7.164062.570312 6.996094.402344 6.789062.402344 6.582031.402344 6.414062.570312 6.414062.777344L6.414062 1.402344 5.785156 1.402344C5.578125 1.402344 5.410156 1.570312 5.410156 1.777344 5.410156 1.984375 5.578125 2.15625 5.785156 2.15625L6.414062 2.15625 6.414062 2.78125C6.414062 2.988281 6.582031 3.15625 6.789062 3.15625 6.996094 3.15625 7.164062 2.988281 7.164062 2.78125L7.164062 2.15625 7.792969 2.15625C8 2.15625 8.167969 1.984375 8.167969 1.777344 8.167969 1.570312 8 1.402344 7.792969 1.402344zM7.792969 1.402344"/>
</svg>

<svg xmlns="http://www.w3.org/2000/svg" width="32" height="32" viewBox="0 0 24 24">
    <path d="M17.027 12.707a.374.374 0 0 0-.527.063 7.367 7.367 0 0 1-.438.488c-.32.316-.671.597-1.05.832a.371.371 0 0 0-.125.515.373.373 0 0 0 .515.125c.43-.265.832-.582 1.192-.94.176-.177.34-.36.492-.556a.377.377 0 0 0-.059-.527zm0 0M18.113 8.82a.375.375 0 0 0-.375.375c0 .785-.156 1.547-.457 2.258a.374.374 0 0 0 .2.492.371.371 0 0 0 .492-.2 6.458 6.458 0 0 0 .515-2.55.375.375 0 0 0-.375-.375zm0 0"/>
    <path d="M20.617 8.219c-.21 0-.418.02-.625.058v-.71h.828a.375.375 0 0 0 .375-.376V4.984a.375.375 0 0 0-.375-.375H3.18a.375.375 0 0 0-.375.375v2.207c0 .207.168.375.375.375h.828v.711A3.383 3.383 0 0 0 0 11.597a3.384 3.384 0 0 0 3.383 3.383c.855 0 1.668-.32 2.289-.894a7.964 7.964 0 0 0 4.95 2.98v3.293a8.025 8.025 0 0 0-4.653 2.618.37.37 0 0 0-.059.402.38.38 0 0 0 .344.219h11.492a.38.38 0 0 0 .344-.22.37.37 0 0 0-.059-.401 8.025 8.025 0 0 0-4.652-2.618v-3.293a7.964 7.964 0 0 0 4.95-2.98 3.363 3.363 0 0 0 2.288.894A3.384 3.384 0 0 0 24 11.598a3.383 3.383 0 0 0-3.383-3.38zM3.56 6.813V5.359H20.44v1.454zm17.058 3.757a1.029 1.029 0 0 1 0 2.055c-.539 0-.972-.406-1.02-.934a7.99 7.99 0 0 0 .192-.699c.191-.262.5-.422.828-.422zM4.402 11.691c-.043.528-.48.934-1.02.934-.566 0-1.027-.46-1.027-1.027s.461-1.028 1.028-1.028c.328 0 .637.16.828.422.055.238.117.473.191.7zm-1.02 2.54A2.634 2.634 0 0 1 .75 11.597a2.633 2.633 0 0 1 3.258-2.555v.152c0 .25.012.504.035.754a1.782 1.782 0 0 0-2.441 1.648c0 .981.8 1.782 1.78 1.782a1.77 1.77 0 0 0 1.419-.703c.129.27.273.535.437.789a2.632 2.632 0 0 1-1.855.765zm13.466 8.617H7.152a7.26 7.26 0 0 1 3.895-1.793.375.375 0 0 0 .328-.371v-3.497h1.25v3.497c0 .187.14.347.328.37a7.26 7.26 0 0 1 3.895 1.794zm1.132-9.559A7.238 7.238 0 0 1 12 16.434a7.214 7.214 0 0 1-7.238-7.238v-1.63h14.476v1.63a7.25 7.25 0 0 1-.168 1.562c-.054.262-.129.52-.21.77a7.214 7.214 0 0 1-.88 1.761zm2.637.941c-.699 0-1.363-.277-1.855-.765.164-.254.308-.52.437-.79.324.43.84.704 1.418.704.98 0 1.781-.8 1.781-1.781a1.782 1.782 0 0 0-2.441-1.649c.023-.25.035-.504.035-.754v-.152a2.636 2.636 0 0 1 3.258 2.555 2.634 2.634 0 0 1-2.633 2.632zm0 0"/>
    <path d="M15.563 10.875a.378.378 0 0 0-.356-.254h-2.14l-.715-1.957A.371.371 0 0 0 12 8.418c-.156 0-.3.098-.352.246l-.714 1.957H8.793a.378.378 0 0 0-.234.672l1.812 1.437-.539 1.965a.369.369 0 0 0 .156.41.37.37 0 0 0 .438-.015L12 13.867l1.574 1.223a.362.362 0 0 0 .438.015.375.375 0 0 0 .156-.41l-.54-1.965 1.813-1.437a.381.381 0 0 0 .121-.418zm-2.594 1.422a.374.374 0 0 0-.13.39l.306 1.118-.915-.711a.382.382 0 0 0-.46 0l-.915.71.305-1.117a.374.374 0 0 0-.129-.39l-1.16-.922H11.2a.379.379 0 0 0 .352-.25L12 9.895l.45 1.23c.054.148.195.25.35.25h1.329zm0 0M13.004 1.402h-.629V.777a.375.375 0 0 0-.75 0v.625h-.629a.375.375 0 0 0-.375.375c0 .207.168.38.375.38h.629v.624a.375.375 0 0 0 .75 0v-.625h.629a.378.378 0 0 0 .375-.379.375.375 0 0 0-.375-.375zm0 0M18.613 1.402h-.625V.777a.375.375 0 0 0-.375-.375.376.376 0 0 0-.379.375v.625h-.625a.375.375 0 0 0-.375.375c0 .207.168.38.375.38h.625v.624c0 .207.168.375.38.375a.375.375 0 0 0 .374-.375v-.625h.625a.378.378 0 0 0 .375-.379.375.375 0 0 0-.375-.375zm0 0M7.793 1.402h-.629V.777a.375.375 0 0 0-.75 0v.625h-.629a.375.375 0 0 0-.375.375c0 .207.168.38.375.38h.63v.624a.375.375 0 0 0 .75 0v-.625h.628a.378.378 0 0 0 .375-.379.375.375 0 0 0-.375-.375zm0 0"/>
</svg>
